X: 6514
T: Cat's Meow, The
R: jig
M: 6/8
K: Dmajor
FAd f2b|afe dBA|~B3 BAF|dAF E2A|
FAd ~f3|afe dBA|B/c/de fdB|1 AFE D3:|2 AFE D2e||
fdB ~A3|DFA def|gef ged|ced cBA|
fdB ~A3|DFA def|g2g age|1 edc d2e:|2 edc d2B|
Adf a2a|agf agf|Ace ~g3|gfe gfe|
~f3 ~g3|a2a bag|f/g/af gec|1 edc d2B:|2 edc d3||

